;FLAVOR:Marlin
;TIME:3559
;Filament used: 1.87786m
;Layer height: 0.1
;MINX:70.794
;MINY:88.23
;MINZ:0.3
;MAXX:129.215
;MAXY:111.857
;MAXZ:15.6
;Generated with Cura_SteamEngine 4.10.0
M140 S60
M105
M190 S60
M104 S240
M105
M109 S240
M82 ;absolute extrusion mode
G28 ;Home
G1 Z15.0 F6000 ;Move the platform down 15mm
;Prime the extruder
G92 E0
G1 F200 E3
G92 E0
G92 E0
G92 E0
G1 F3000 E-1
;LAYER_COUNT:153
;LAYER:0
M107
G1 F900 Z0.4
G0 F4800 X72.713 Y90.328 Z0.4
;TYPE:SKIRT
G1 F900 Z0.3
G1 F3000 E0
G1 F1800 X73.283 Y89.887 E0.0809
G1 X73.459 Y89.775 E0.10432
G1 X73.95 Y89.51 E0.16695
G1 X74.43 Y89.33 E0.22449
G1 X74.563 Y89.29 E0.24008
G1 X75.348 Y89.14 E0.3298
G1 X76.087 Y89.076 E0.41306
G1 X78.822 Y88.8 E0.72163
G1 X82.325 Y88.33 E1.11838
G1 X82.648 Y88.282 E1.15503
G1 X83.079 Y88.243 E1.20361
G1 X83.284 Y88.236 E1.22664
G1 X83.786 Y88.23 E1.28299
G1 X90.7 Y88.23 E2.05911
G1 X91.399 Y88.24 E2.13758
G1 X91.616 Y88.25 E2.16197
G1 X92.115 Y88.285 E2.21812
G1 X94.062 Y88.451 E2.43747
G1 X96.8 Y88.605 E2.7453
G1 X99.48 Y88.681 E3.04626
G1 X102.231 Y88.681 E3.35507
G1 X104.92 Y88.605 E3.65704
G1 X107.373 Y88.469 E3.93282
G1 X109.237 Y88.342 E4.14254
G1 X110.106 Y88.287 E4.24029
G1 X110.612 Y88.276 E4.2971
G1 X112.181 Y88.28 E4.47322
G1 X114.68 Y88.269 E4.75375
G1 X115.314 Y88.279 E4.82492
G1 X115.538 Y88.29 E4.8501
G1 X116.734 Y88.378 E4.98472
G1 X117.161 Y88.433 E5.03305
G1 X118.321 Y88.649 E5.1655
G1 X118.776 Y88.741 E5.21761
G1 X121.53 Y89.213 E5.53126
G1 X122.848 Y89.42 E5.68102
G1 X123.289 Y89.516 E5.73168
G1 X123.709 Y89.634 E5.78066
G1 X124.067 Y89.744 E5.8227
G1 X124.588 Y89.946 E5.88542
G1 X125.074 Y90.22 E5.94805
G1 X125.534 Y90.576 E6.01334
G1 X127.207 Y92.085 E6.26625
G1 X127.523 Y92.379 E6.3147
G1 X127.903 Y92.787 E6.37729
G1 X128.247 Y93.291 E6.44578
G1 X128.347 Y93.465 E6.46831
G1 X128.59 Y93.967 E6.53092
G1 X128.759 Y94.499 E6.59358
G1 X128.863 Y95.255 E6.67924
G1 X128.902 Y96.267 E6.79292
G1 X128.924 Y97.258 E6.90419
G1 X129.024 Y100.047 E7.21747
G1 X129.122 Y101.903 E7.4261
G1 X129.155 Y103.156 E7.5668
G1 X129.172 Y103.375 E7.59146
G1 X129.197 Y104.726 E7.74314
G1 X129.215 Y105.198 E7.79616
G1 X129.201 Y105.708 E7.85343
G1 X129.111 Y106.259 E7.9161
G1 X128.882 Y106.936 E7.99633
G1 X128.716 Y107.31 E8.04226
G1 X128.282 Y108.261 E8.1596
G1 X128.03 Y108.733 E8.21967
G1 X127.718 Y109.196 E8.28234
G1 X127.343 Y109.609 E8.34496
G1 X127.008 Y109.894 E8.39433
G1 X126.842 Y110.02 E8.41772
G1 X126.374 Y110.325 E8.48043
G1 X125.723 Y110.612 E8.56029
G1 X125.541 Y110.673 E8.58184
G1 X124.756 Y110.848 E8.67212
G1 X124.414 Y110.888 E8.71077
G1 X122.325 Y111.104 E8.94652
G1 X119.645 Y111.459 E9.24999
G1 X118.744 Y111.606 E9.35246
G1 X117.449 Y111.802 E9.49949
G1 X117.028 Y111.843 E9.54697
G1 X116.766 Y111.852 E9.5764
G1 X116.322 Y111.857 E9.62624
G1 X109.198 Y111.857 E10.42593
G1 X108.5 Y111.847 E10.50429
G1 X108.224 Y111.833 E10.53531
G1 X105.279 Y111.582 E10.8671
G1 X102.547 Y111.429 E11.17425
G1 X99.868 Y111.354 E11.47509
G1 X97.118 Y111.355 E11.78379
G1 X94.438 Y111.431 E12.08475
G1 X91.744 Y111.583 E12.38764
G1 X91.022 Y111.634 E12.46889
G1 X90.735 Y111.656 E12.5012
G1 X89.772 Y111.719 E12.60953
G1 X89.404 Y111.728 E12.65085
G1 X88.218 Y111.719 E12.78399
G1 X86.365 Y111.719 E12.99199
G1 X85.354 Y111.726 E13.10548
G1 X84.881 Y111.715 E13.15859
G1 X83.549 Y111.632 E13.3084
G1 X83.339 Y111.615 E13.33205
G1 X82.687 Y111.506 E13.40626
G1 X81.906 Y111.306 E13.49676
G1 X80.654 Y110.968 E13.64233
G1 X78.025 Y110.337 E13.94582
G1 X75.242 Y109.758 E14.26491
G1 X74.813 Y109.666 E14.31416
G1 X74.277 Y109.51 E14.37683
G1 X73.628 Y109.217 E14.45676
G1 X73.144 Y108.939 E14.51941
G1 X72.79 Y108.67 E14.56932
G1 X72.66 Y108.559 E14.58851
G1 X72.262 Y108.167 E14.65122
G1 X71.925 Y107.722 E14.71388
G1 X71.654 Y107.234 E14.77654
G1 X71.456 Y106.712 E14.83921
G1 X71.353 Y106.279 E14.88917
G1 X71.3 Y105.98 E14.92326
G1 X71.172 Y105.173 E15.01498
G1 X71.129 Y104.751 E15.06259
G1 X71.107 Y104.186 E15.12607
G1 X71.084 Y102.974 E15.26214
G1 X70.941 Y99.226 E15.68317
G1 X70.881 Y98.179 E15.80089
G1 X70.852 Y97.234 E15.90702
G1 X70.837 Y96.16 E16.02759
G1 X70.819 Y95.719 E16.07714
G1 X70.794 Y94.729 E16.1883
G1 X70.82 Y94.172 E16.2509
G1 X70.912 Y93.673 E16.30786
G1 X71.146 Y93.004 E16.38741
G1 X71.718 Y91.747 E16.54244
G1 X71.908 Y91.382 E16.58863
G1 X72.017 Y91.197 E16.61273
G1 X72.334 Y90.738 E16.67535
G1 X72.713 Y90.328 E16.73802
G0 F4800 X73.184 Y90.711
G1 F1800 X73.605 Y90.393 E16.79725
G1 X73.781 Y90.281 E16.82067
G1 X74.235 Y90.04 E16.87837
G1 X74.736 Y89.865 E16.93794
G1 X75.4 Y89.737 E17.01384
G1 X76.171 Y89.67 E17.10072
G1 X78.869 Y89.398 E17.40511
G1 X82.46 Y88.917 E17.81181
G1 X83.101 Y88.842 E17.88426
G1 X83.292 Y88.836 E17.90571
G1 X83.794 Y88.83 E17.96206
G1 X90.691 Y88.83 E18.73627
G1 X91.39 Y88.84 E18.81474
G1 X91.574 Y88.848 E18.83542
G1 X92.064 Y88.883 E18.89056
G1 X94.011 Y89.049 E19.10991
G1 X96.751 Y89.203 E19.41797
G1 X99.499 Y89.281 E19.72657
G1 X102.212 Y89.281 E20.03111
G1 X104.97 Y89.203 E20.34083
G1 X107.432 Y89.067 E20.61761
G1 X109.318 Y88.938 E20.82982
G1 X110.144 Y88.886 E20.92272
G1 X110.618 Y88.876 E20.97594
G1 X112.183 Y88.88 E21.15162
G1 X114.67 Y88.869 E21.43079
G1 X115.304 Y88.879 E21.50197
G1 X115.494 Y88.888 E21.52332
G1 X116.69 Y88.976 E21.65794
G1 X117.051 Y89.023 E21.69881
G1 X118.203 Y89.237 E21.83033
G1 X118.7 Y89.337 E21.88724
G1 X121.396 Y89.8 E22.19431
G1 X122.755 Y90.013 E22.34872
G1 X123.448 Y90.183 E22.42882
G1 X123.891 Y90.318 E22.4808
G1 X124.369 Y90.506 E22.53846
G1 X124.811 Y90.766 E22.59602
G1 X125.132 Y91.021 E22.64204
G1 X126.798 Y92.524 E22.89392
G1 X127.114 Y92.818 E22.94237
G1 X127.461 Y93.196 E22.99996
G1 X127.727 Y93.59 E23.05333
G1 X127.827 Y93.764 E23.07586
G1 X128.048 Y94.227 E23.13345
G1 X128.193 Y94.72 E23.19113
G1 X128.263 Y95.279 E23.25437
G1 X128.302 Y96.28 E23.36682
G1 X128.324 Y97.279 E23.47899
G1 X128.423 Y100.045 E23.78968
G1 X128.518 Y101.829 E23.99022
G1 X128.522 Y101.919 E24.00033
G1 X128.556 Y103.216 E24.14598
G1 X128.572 Y103.386 E24.16514
G1 X128.597 Y104.714 E24.31424
G1 X128.616 Y105.22 E24.37108
G1 X128.603 Y105.654 E24.41982
G1 X128.517 Y106.16 E24.47744
G1 X128.334 Y106.693 E24.5407
G1 X128.17 Y107.061 E24.58592
G1 X127.736 Y108.012 E24.70327
G1 X127.51 Y108.434 E24.757
G1 X127.22 Y108.857 E24.81457
G1 X126.868 Y109.231 E24.87222
G1 X126.479 Y109.543 E24.9282
G1 X126.047 Y109.82 E24.98581
G1 X125.533 Y110.043 E25.0487
G1 X125.351 Y110.104 E25.07025
G1 X124.686 Y110.253 E25.14675
G1 X124.352 Y110.291 E25.18448
G1 X122.254 Y110.508 E25.42124
G1 X119.573 Y110.863 E25.72482
G1 X118.654 Y111.013 E25.82935
G1 X117.359 Y111.209 E25.97637
G1 X116.86 Y111.249 E26.03256
G1 X116.759 Y111.252 E26.04391
G1 X116.315 Y111.257 E26.09375
G1 X109.207 Y111.257 E26.89164
G1 X108.509 Y111.247 E26.97
G1 X108.275 Y111.235 E26.99631
G1 X105.329 Y110.984 E27.3282
G1 X102.598 Y110.831 E27.63525
G1 X99.849 Y110.754 E27.94395
G1 X97.136 Y110.755 E28.24849
G1 X94.386 Y110.833 E28.55731
G1 X91.722 Y110.983 E28.85683
G1 X90.975 Y111.036 E28.94089
G1 X90.695 Y111.058 E28.97242
G1 X89.859 Y111.114 E29.06647
G1 X89.409 Y111.128 E29.11701
G1 X88.223 Y111.119 E29.25015
G1 X86.361 Y111.119 E29.45916
G1 X85.362 Y111.126 E29.57131
G1 X84.918 Y111.116 E29.62116
G1 X83.598 Y111.034 E29.76962
G1 X83.388 Y111.017 E29.79327
G1 X82.836 Y110.925 E29.85609
G1 X82.063 Y110.727 E29.94566
G1 X80.814 Y110.39 E30.09088
G1 X78.157 Y109.752 E30.39761
G1 X75.368 Y109.172 E30.71738
G1 X74.939 Y109.08 E30.76663
G1 X74.447 Y108.933 E30.82427
G1 X73.889 Y108.676 E30.89324
G1 X73.445 Y108.418 E30.95088
G1 X73.049 Y108.103 E31.00768
G1 X72.686 Y107.74 E31.06531
G1 X72.383 Y107.325 E31.12299
G1 X72.148 Y106.869 E31.18057
G1 X71.943 Y106.173 E31.26202
G1 X71.893 Y105.886 E31.29472
G1 X71.765 Y105.079 E31.38644
G1 X71.716 Y104.475 E31.45446
G1 X71.706 Y104.135 E31.49265
G1 X71.684 Y102.981 E31.62221
G1 X71.538 Y99.161 E32.05133
G1 X71.476 Y98.054 E32.17579
G1 X71.452 Y97.226 E32.26877
G1 X71.436 Y96.126 E32.39226
G1 X71.419 Y95.704 E32.43967
G1 X71.394 Y94.714 E32.55084
G1 X71.421 Y94.202 E32.60839
G1 X71.495 Y93.819 E32.65218
G1 X71.692 Y93.252 E32.71956
G1 X72.264 Y91.995 E32.87458
G1 X72.534 Y91.502 E32.93768
G1 X72.828 Y91.081 E32.99532
G1 X73.184 Y90.711 E33.05296
G1 F3000 E32.05296
G1 F900 Z0.4
G0 F4800 X75.568 Y93.417 Z0.4
;TYPE:SUPPORT
G1 F900 Z0.3
G1 F3000 E33.05296
G1 F1800 X75.695 Y93.323 E33.0707
G1 X76.04 Y93.369 E33.10977
G1 X82.654 Y93.366 E33.85221
G1 X83.137 Y93.052 E33.91688
G1 X83.412 Y92.43 E33.99322
G1 X91.151 Y92.43 E34.86194
G1 X91.404 Y93.044 E34.93649
G1 X91.887 Y93.368 E35.00177
G1 X93.33 Y93.368 E35.16375
G1 X94.497 Y93.354 E35.29476
G1 X94.878 Y93.406 E35.33793
G1 X95.268 Y93.394 E35.38173
G1 X95.659 Y93.443 E35.42596
G1 X96.088 Y93.443 E35.47412
G1 X96.318 Y93.534 E35.50188
G1 X97.875 Y93.898 E35.68137
G1 X97.99 Y94.219 E35.71965
G1 X98.471 Y94.557 E35.78564
G1 X103.651 Y94.554 E36.36711
G1 X105.717 Y94.56 E36.59903
G1 X107.651 Y94.558 E36.81613
G1 X108.135 Y94.28 E36.87878
G1 X109.137 Y92.558 E37.10242
G1 X110.283 Y92.548 E37.23107
G1 X110.417 Y92.47 E37.24847
G1 X110.88 Y92.468 E37.30045
G1 X111.264 Y92.485 E37.34359
G1 X114.606 Y92.468 E37.71875
G1 X115.19 Y92.47 E37.78431
G1 X115.342 Y92.557 E37.80396
G1 X116.28 Y92.557 E37.90926
G1 X116.695 Y93.281 E38.00293
G1 X117.181 Y93.562 E38.06595
G1 X122.183 Y93.562 E38.62744
G1 X122.652 Y93.734 E38.68352
G1 X122.875 Y94.168 E38.73829
G1 X124.646 Y95.431 E38.98246
G1 X124.685 Y95.5 E38.99136
G1 X124.722 Y97.226 E39.18515
G1 X124.426 Y97.226 E39.21838
G1 X124.191 Y97.126 E39.24705
G1 X122.949 Y97.126 E39.38647
G1 X118.334 Y97.091 E39.90453
G1 X117.93 Y97.09 E39.94988
G1 X117.816 Y97.313 E39.97799
G1 X117.619 Y97.497 E40.00825
G1 X116.796 Y97.497 E40.10064
G1 X116.415 Y98.11 E40.18166
G1 X115.596 Y99.062 E40.32263
G1 X115.545 Y99.13 E40.33217
G1 X115.068 Y99.528 E40.4019
G1 X114.358 Y99.951 E40.49467
G1 X114.206 Y100.051 E40.5151
G1 X113.533 Y100.269 E40.59451
G1 X113.302 Y100.311 E40.62087
G1 X112.699 Y100.377 E40.68896
G1 X112.103 Y100.313 E40.75625
G1 X111.867 Y100.269 E40.78319
G1 X111.198 Y100.051 E40.86218
G1 X111.02 Y99.94 E40.88572
G1 X110.335 Y99.53 E40.97534
G1 X109.851 Y99.125 E41.04618
G1 X109.8 Y99.06 E41.05546
G1 X108.981 Y98.102 E41.19694
G1 X108.556 Y97.43 E41.28619
G1 X107.83 Y97.516 E41.36826
G1 X107.7 Y97.388 E41.38873
G1 X107.603 Y97.349 E41.40047
G1 X107.47 Y97.091 E41.43305
G1 X103.65 Y97.181 E41.86198
G1 X102.842 Y97.277 E41.95332
G1 X102.122 Y97.234 E42.03428
G1 X101.561 Y97.206 E42.09734
G1 X100.224 Y97.151 E42.24754
G1 X99.627 Y97.133 E42.31459
G1 X98.735 Y97.114 E42.41474
G1 X97.488 Y97.115 E42.55472
G1 X95.827 Y97.148 E42.74121
G1 X92.131 Y97.116 E43.15611
G1 X88.107 Y97.14 E43.60783
G1 X83.295 Y97.179 E44.14801
G1 X75.847 Y97.179 E44.98407
G1 X75.665 Y97.219 E45.00498
G1 X75.289 Y97.41 E45.05232
G1 X75.082 Y97.627 E45.08599
G1 X75.159 Y96.083 E45.25952
G1 X75.191 Y95.737 E45.29853
G1 X75.009 Y94.75 E45.41119
G1 X75.386 Y94.447 E45.46548
G1 X75.568 Y93.417 E45.58289
G1 F3000 E44.58289
G1 F900 Z0.4
G0 F4800 X76.8 Y93.63 Z0.4
G1 F900 Z0.3
G1 F3000 E45.58289
G1 F1800 X76.8 Y96.917 E45.95187
G1 F3000 E44.95187
G1 F900 Z0.4
G0 F4800 X75.431 Y96 Z0.4
G1 F900 Z0.3
G1 F3000 E45.95187
G1 F1800 X124.434 Y96 E51.4526
G1 F3000 E50.4526
G1 F900 Z0.4
G0 F4800 X121.6 Y96.853 Z0.4
G1 F900 Z0.3
G1 F3000 E51.4526
G1 F1800 X121.6 Y93.824 E51.79262
G1 F3000 E50.79262
G1 F900 Z0.4
G0 F4800 X118.4 Y93.824 Z0.4
G1 F900 Z0.3
G1 F3000 E51.79262
G1 F1800 X118.4 Y96.829 E52.12994
G1 F3000 E51.12994
G1 F900 Z0.4
G0 F4800 X115.2 Y99.077 Z0.4
G1 F900 Z0.3
G1 F3000 E52.12994
G1 F1800 X115.2 Y92.778 E52.83702
G0 F4800 X115.239 Y92.8
G1 F1800 X110.371 Y92.8 E53.38346
G1 F3000 E52.38346
G1 F900 Z0.4
G0 F4800 X112 Y92.743 Z0.4
G1 F900 Z0.3
G1 F3000 E53.38346
G1 F1800 X112 Y100.027 E54.20112
G1 F3000 E53.20112
G1 F900 Z0.4
G0 F4800 X110.349 Y99.2 Z0.4
G1 F900 Z0.3
G1 F3000 E54.20112
G1 F1800 X115.051 Y99.2 E54.72893
G1 F3000 E53.72893
G1 F900 Z0.4
G0 F4800 X108.8 Y97.326 Z0.4
G1 F900 Z0.3
G1 F3000 E54.72893
G1 F1800 X108.8 Y93.657 E55.14078
G1 F3000 E54.14078
G1 F900 Z0.4
G0 F4800 X105.6 Y94.822 Z0.4
G1 F900 Z0.3
G1 F3000 E55.14078
G1 F1800 X105.6 Y96.874 E55.37113
G1 F3000 E54.37113
G1 F900 Z0.4
G0 F4800 X102.4 Y96.987 Z0.4
G1 F900 Z0.3
G1 F3000 E55.37113
G1 F1800 X102.4 Y94.816 E55.61483
G1 F3000 E54.61483
G1 F900 Z0.4
G0 F4800 X99.2 Y94.818 Z0.4
G1 F900 Z0.3
G1 F3000 E55.61483
G1 F1800 X99.2 Y96.861 E55.84416
G1 F3000 E54.84416
G1 F900 Z0.4
G0 F4800 X96 Y96.883 Z0.4
G1 F900 Z0.3
G1 F3000 E55.84416
G1 F1800 X96 Y93.705 E56.2009
G1 F3000 E55.2009
G1 F900 Z0.4
G0 F4800 X92.8 Y93.63 Z0.4
G1 F900 Z0.3
G1 F3000 E56.2009
G1 F1800 X92.8 Y96.859 E56.56337
G1 F3000 E55.56337
G1 F900 Z0.4
G0 F4800 X89.6 Y96.87 Z0.4
G1 F900 Z0.3
G1 F3000 E56.56337
G1 F1800 X89.6 Y92.692 E57.03236
G1 F3000 E56.03236
G1 F900 Z0.4
G0 F4800 X91.02 Y92.8 Z0.4
G1 F900 Z0.3
G1 F3000 E57.03236
G1 F1800 X83.535 Y92.8 E57.87257
G0 F4800 X83.2 Y93.323
G1 F1800 X83.2 Y96.917 E58.27601
G1 F3000 E57.27601
G1 F900 Z0.4
G0 F4800 X80 Y96.917 Z0.4
G1 F900 Z0.3
G1 F3000 E58.27601
G1 F1800 X80 Y93.629 E58.6451
G1 F3000 E57.6451
G1 F900 Z0.4
G0 F4800 X86.4 Y92.692 Z0.4
G1 F900 Z0.3
G1 F3000 E58.6451
G1 F1800 X86.4 Y96.892 E59.11656
G1 F3000 E58.11656
G1 F900 Z0.4
G0 F4800 X86.808 Y99.649 Z0.4
G1 F900 Z0.3
G1 F3000 E59.11656
G1 F1800 X87.792 Y99.649 E59.22702
G1 X88.009 Y99.685 E59.25171
G1 X88.573 Y99.869 E59.3183
G1 X88.883 Y99.99 E59.35566
G1 X89.456 Y100.31 E59.42933
G1 X89.546 Y100.396 E59.4433
G1 X90.148 Y100.872 E59.52945
G1 X90.611 Y101.348 E59.60399
G1 X90.803 Y101.596 E59.6392
G1 X91.414 Y102.505 E59.76215
G1 X92.09 Y102.46 E59.8382
G1 X92.189 Y102.57 E59.85481
G1 X92.402 Y102.666 E59.88103
G1 X92.508 Y102.884 E59.90825
G1 X99.315 Y102.88 E60.67235
G1 X99.999 Y102.834 E60.74931
G1 X100.051 Y102.817 E60.75545
G1 X100.577 Y102.849 E60.8146
G1 X101.437 Y102.88 E60.9112
G1 X102.254 Y102.879 E61.00291
G1 X103.693 Y102.822 E61.16457
G1 X104.198 Y102.855 E61.22138
G1 X107.635 Y102.884 E61.60721
G1 X111.689 Y102.86 E62.06229
G1 X115.722 Y102.825 E62.51502
G1 X116.595 Y102.82 E62.61302
G1 X124.155 Y102.82 E63.46165
G1 X124.343 Y102.774 E63.48338
G1 X124.743 Y102.552 E63.53473
G1 X124.92 Y102.361 E63.56396
G1 X124.826 Y104.352 E63.78771
G1 X124.999 Y105.236 E63.88882
G1 X124.634 Y105.53 E63.94143
G1 X124.43 Y106.6 E64.06371
G1 X124.317 Y106.675 E64.07893
G1 X123.963 Y106.636 E64.11891
G1 X117.419 Y106.639 E64.85349
G1 X116.938 Y106.963 E64.91859
G1 X116.653 Y107.657 E65.00281
G1 X108.747 Y107.657 E65.89028
G1 X108.456 Y106.958 E65.97527
G1 X107.973 Y106.636 E66.04044
G1 X106.319 Y106.636 E66.2261
G1 X105.918 Y106.649 E66.27114
G1 X105.607 Y106.653 E66.30605
G1 X105.202 Y106.592 E66.35203
G1 X104.765 Y106.606 E66.40111
G1 X104.325 Y106.562 E66.45075
G1 X103.921 Y106.511 E66.49646
G1 X102.341 Y106.184 E66.67757
G1 X102.091 Y105.864 E66.72316
G1 X101.609 Y105.628 E66.7834
G1 X97.186 Y105.607 E67.2799
G1 X96.726 Y106.065 E67.35277
G1 X96.726 Y106.443 E67.3952
G1 X90.757 Y106.443 E68.06524
G1 X90.354 Y107.036 E68.14572
G1 X90.516 Y107.441 E68.19468
G1 X89.626 Y107.444 E68.29459
G1 X89.509 Y107.532 E68.31102
G1 X89.084 Y107.532 E68.35873
G1 X88.67 Y107.519 E68.40523
G1 X85.914 Y107.519 E68.7146
G1 X85.5 Y107.532 E68.76109
G1 X85.213 Y107.532 E68.79331
G1 X85.096 Y107.452 E68.80922
G1 X84.082 Y107.442 E68.92305
G1 X84.564 Y106.118 E69.08121
G1 X84.156 Y105.535 E69.16109
G1 X79.905 Y105.535 E69.63828
G1 X77.239 Y105.523 E69.93755
G1 X76.854 Y105.619 E69.98209
G1 X75.911 Y105.614 E70.08794
G1 X75.6 Y105.542 E70.12378
G1 X75.522 Y105.488 E70.13443
G1 X75.623 Y105.037 E70.18631
G1 X75.314 Y104.493 E70.25654
G1 X75.282 Y102.798 E70.44684
G1 X75.592 Y102.798 E70.48164
G1 X75.803 Y102.897 E70.5078
G1 X78.774 Y102.896 E70.8413
G1 X79.549 Y102.902 E70.9283
G1 X81.181 Y102.838 E71.11164
G1 X81.189 Y102.835 E71.1126
G1 X82.086 Y102.898 E71.21354
G1 X82.199 Y102.665 E71.24261
G1 X82.397 Y102.584 E71.26662
G1 X82.502 Y102.467 E71.28427
G1 X83.204 Y102.477 E71.36308
G1 X83.803 Y101.588 E71.48341
